fs/alert_snooze_16_regular.svg

<svg viewBox="0 0 16 16" fill="none" xmlns="http://www.w3.org/2000/svg" height="1em" width="1em">
  <path d="M11 1C10.7239 1 10.5 1.22386 10.5 1.5C10.5 1.77614 10.7239 2 11 2H13.5397L10.5904 6.21327C10.4835 6.366 10.4704 6.56554 10.5565 6.73091C10.6426 6.89627 10.8136 7 11 7H14.5C14.7762 7 15 6.77614 15 6.5C15 6.22386 14.7762 6 14.5 6H11.9603L14.9096 1.78673C15.0165 1.634 15.0296 1.43446 14.9435 1.26909C14.8574 1.10373 14.6864 1 14.5 1H11ZM6.50001 5C6.22387 5 6.00001 5.22386 6.00001 5.5C6.00001 5.77614 6.22387 6 6.50001 6H7.93249L6.1159 8.17991C5.9917 8.32895 5.96492 8.53639 6.04721 8.71208C6.1295 8.88777 6.306 9 6.50001 9H9.00001C9.27615 9 9.50001 8.77614 9.50001 8.5C9.50001 8.22386 9.27615 8 9.00001 8H7.56753L9.38412 5.82009C9.50832 5.67105 9.53509 5.46361 9.4528 5.28792C9.37051 5.11223 9.19402 5 9.00001 5H6.50001ZM8 3C6.06701 3 4.5 4.567 4.5 6.5V9C4.5 9.06361 4.48786 9.12663 4.46424 9.1857L3.73852 11H12.2615L11.5358 9.1857C11.5121 9.12663 11.5 9.06361 11.5 9V8.5C11.5 8.22386 11.7239 8 12 8C12.2761 8 12.5 8.22386 12.5 8.5V8.90371L13.4642 11.3143C13.5259 11.4684 13.5071 11.6429 13.414 11.7803C13.321 11.9177 13.1659 12 13 12H10C10 13.1046 9.10457 14 8 14C6.89543 14 6 13.1046 6 12H3C2.83409 12 2.67898 11.9177 2.58597 11.7803C2.49295 11.6429 2.47415 11.4684 2.53576 11.3143L3.5 8.90371V6.5C3.5 4.01472 5.51472 2 8 2C8.59584 2 9.1658 2.11607 9.68761 2.32729C9.94358 2.4309 10.0671 2.7224 9.96347 2.97837C9.85986 3.23433 9.56836 3.35784 9.3124 3.25423C8.90777 3.09044 8.46507 3 8 3ZM7 12C7 12.5523 7.44772 13 8 13C8.55229 13 9 12.5523 9 12H7Z" fill="#212121"/>
</svg>

<svg viewBox="0 0 16 16" fill="none" xmlns="http://www.w3.org/2000/svg" height="1em" width="1em">
  <path d="M11 1a.5.5 0 0 0 0 1h2.54l-2.95 4.213A.5.5 0 0 0 11 7h3.5a.5.5 0 1 0 0-1h-2.54l2.95-4.213A.5.5 0 0 0 14.5 1H11ZM6.5 5a.5.5 0 0 0 0 1h1.432L6.116 8.18A.5.5 0 0 0 6.5 9H9a.5.5 0 0 0 0-1H7.568l1.816-2.18A.5.5 0 0 0 9 5H6.5ZM8 3a3.5 3.5 0 0 0-3.5 3.5V9a.5.5 0 0 1-.036.186L3.74 11h8.523l-.726-1.814A.499.499 0 0 1 11.5 9v-.5a.5.5 0 0 1 1 0v.404l.964 2.41A.5.5 0 0 1 13 12h-3a2 2 0 1 1-4 0H3a.5.5 0 0 1-.464-.686l.964-2.41V6.5a4.5 4.5 0 0 1 6.188-4.173.5.5 0 1 1-.376.927A3.489 3.489 0 0 0 8 3Zm-1 9a1 1 0 1 0 2 0H7Z" fill="#212121"/>
</svg>
